packages/astro-components-stencil/src/icons/undo.svg

<svg xmlns="http://www.w3.org/2000/svg" viewBox="0 0 24 24"><g xmlns="http://www.w3.org/2000/svg" id="undo" fill-rule="nonzero">
            <path d="M12.5 8c-2.65 0-5.05.99-6.9 2.6L3.71 8.71C3.08 8.08 2 8.52 2 9.41V15c0 .55.45 1 1 1h5.59c.89 0 1.34-1.08.71-1.71l-1.91-1.91c1.39-1.16 3.16-1.88 5.12-1.88 3.16 0 5.89 1.84 7.19 4.5.27.56.91.84 1.5.64.71-.23 1.07-1.04.75-1.72C20.23 10.42 16.65 8 12.5 8z"/>
        </g></svg>

<svg width="24" height="24" viewBox="0 0 24 24" fill="none" xmlns="http://www.w3.org/2000/svg">
<path d="M12.5 8C9.85 8 7.45 8.99 5.6 10.6L3.71 8.71C3.08 8.08 2 8.52 2 9.41V15C2 15.55 2.45 16 3 16H8.59C9.48 16 9.93 14.92 9.3 14.29L7.39 12.38C8.78 11.22 10.55 10.5 12.51 10.5C15.67 10.5 18.4 12.34 19.7 15C19.97 15.56 20.61 15.84 21.2 15.64C21.91 15.41 22.27 14.6 21.95 13.92C20.23 10.42 16.65 8 12.5 8Z" fill="black"/>
</svg>
